public/build/assets/icon_search-V_5MVFnh.svg

<svg width="19" height="20" viewBox="0 0 19 20" fill="none" xmlns="http://www.w3.org/2000/svg">
<path d="M17.8411 14.0533L15.1839 12.0588C15.8482 10.9191 16.1329 9.5895 16.1329 8.16487C16.1329 3.70105 12.5267 0.0920105 8.06646 0.0920105C3.60618 0.0920105 0 3.70106 0 8.16484C0 12.6286 3.60618 16.2377 8.06646 16.2377C9.48995 16.2377 10.7236 15.8578 11.9573 15.288L13.9502 17.9472C14.9941 19.2769 16.987 19.4668 18.2207 18.2322C19.3595 17.0925 19.2646 15.098 17.8411 14.0533ZM8.06646 14.3382C4.65008 14.3382 1.89799 11.584 1.89799 8.16487C1.89799 4.74578 4.65008 1.99151 8.06646 1.99151C11.4828 1.99151 14.2349 4.74578 14.2349 8.16484C14.2349 11.5839 11.4828 14.3382 8.06646 14.3382Z" fill="white"/>
</svg>

<svg width="19" height="20" fill="none" xmlns="http://www.w3.org/2000/svg"><path d="m17.841 14.053-2.657-1.994c.664-1.14.949-2.47.949-3.894A8.063 8.063 0 0 0 8.066.092 8.063 8.063 0 0 0 0 8.165a8.063 8.063 0 0 0 8.066 8.073c1.424 0 2.658-.38 3.891-.95l1.993 2.66c1.044 1.329 3.037 1.519 4.27.284 1.14-1.14 1.045-3.134-.379-4.179Zm-9.775.285a6.159 6.159 0 0 1-6.168-6.173 6.159 6.159 0 0 1 6.168-6.173 6.159 6.159 0 0 1 6.169 6.173 6.159 6.159 0 0 1-6.169 6.173Z" fill="#fff"/></svg>
